src/helpers/heroicons/outline/paint-brush.svg

<svg width="24" height="24" viewBox="0 0 24 24" fill="none" xmlns="http://www.w3.org/2000/svg">
<path d="M9.53086 16.1224C9.08517 15.0243 8.00801 14.25 6.75 14.25C5.09315 14.25 3.75 15.5931 3.75 17.25C3.75 18.4926 2.74262 19.5 1.49998 19.5C1.44928 19.5 1.39898 19.4983 1.34912 19.495C2.12648 20.8428 3.58229 21.75 5.24998 21.75C7.72821 21.75 9.73854 19.7467 9.74993 17.2711C9.74998 17.2641 9.75 17.2571 9.75 17.25C9.75 16.8512 9.67217 16.4705 9.53086 16.1224ZM9.53086 16.1224C10.7252 15.7153 11.8612 15.1705 12.9175 14.5028M7.875 14.4769C8.2823 13.2797 8.8281 12.1411 9.49724 11.0825M12.9175 14.5028C14.798 13.3141 16.4259 11.7362 17.6806 9.85406L21.5566 4.04006C21.6827 3.85093 21.75 3.6287 21.75 3.40139C21.75 2.76549 21.2345 2.25 20.5986 2.25C20.3713 2.25 20.1491 2.31729 19.9599 2.44338L14.1459 6.31937C12.2638 7.57413 10.6859 9.20204 9.49724 11.0825M12.9175 14.5028C12.2396 12.9833 11.0167 11.7604 9.49724 11.0825"  stroke-width="1.5" stroke-linecap="round" stroke-linejoin="round"/>
</svg>

<svg xmlns="http://www.w3.org/2000/svg" fill="none" viewBox="0 0 24 24" stroke-width="1.5" stroke="currentColor" aria-hidden="true" data-slot="icon">
  <path stroke-linecap="round" stroke-linejoin="round" d="M9.53 16.122a3 3 0 0 0-5.78 1.128 2.25 2.25 0 0 1-2.4 2.245 4.5 4.5 0 0 0 8.4-2.245c0-.399-.078-.78-.22-1.128Zm0 0a15.998 15.998 0 0 0 3.388-1.62m-5.043-.025a15.994 15.994 0 0 1 1.622-3.395m3.42 3.42a15.995 15.995 0 0 0 4.764-4.648l3.876-5.814a1.151 1.151 0 0 0-1.597-1.597L14.146 6.32a15.996 15.996 0 0 0-4.649 4.763m3.42 3.42a6.776 6.776 0 0 0-3.42-3.42"/>
</svg>
